X:1
T:Once o’er Judea’s Hills by Night
T:Rigdon McCoy McIntosh
T:Once o’er Judea’s Hills by Night
T:Public Domain
T:Public Domain
T:Public Domain
C:Rigdon McCoy McIntosh
Z:Public Domain
%%score ( 1 2 ) ( 3 4 )
L:1/8
M:6/8
K:Bb
V:1 treble 
V:2 treble 
V:3 bass 
V:4 bass 
V:1
"^Joyfully" [DF] | [DF]2 [CE] [B,D]2 [DF] | [DB]2 [Ec] [Fd]2 [Ge] | [Fd]2 [Fc] [FB]2 [FA] | %4
w: 1.~Once|o’er Ju- de- a’s|hills by night Was|heard a joy- ful|
w: 2.~When|they had sung their|song of love, The|an- gels went a-|
 ([Fc]3 [FB]2) [DF] | [DF]2 [CE] [B,D]2 [DF] | [DB]2 [Ec] [Fd]2 [Ge] | [Fd]2 [Ec] [DB]2 [CA] | %8
w: sound, * A|host ap- peared, of|an- gels bright, And|glo- ry shone a-|
w: way, * To|sing in joy- ful|courts a- bove That|first glad Christ- mas|
 [DB]3- [DB]2 [DB] | [FB]2 [FA] [EG]2 [EG] | [=Ec]2 [EB] [FA]2 F | [EG]2 [EA] [FB]2 [Fc] | %12
w: round. * Fear|not, they sing, to|you we bring Glad|ings, peace on earth;|
w: day. * The|shep- herds heard the|wond- rous word The|gels brought to them;|
 [Fd]3- [Fd]2 [EB] | [FB]2 [FA] [EG]2 [EG] | [=Ec]2 [EB] [FA]2 F | [EG]2 [GB] [Fd]2 [Ec] | %16
w: Good * will|to men, they car-|oled then, And sang|Sav- ior’s birth. On|
w: Then * has-|tened they where sleep-|ing lay The Babe|Beth- le- hem. A-|
 [DB]3- [DB]2 [Fd] | [Fe]2 [Fe] [Fc]2 [Fc] | [Fd]2 [Fd] [GB]2 [GB] | [Gc]2 [Gc] [FA]2 [FA] | %20
w: Beth- * l’em’s|plain no more we|hear The won- drous|heav- ’nly chime; But|
w: round * the|man- ger gath- er-|ing, O! let us|pros- trate fall; And|
 [FB]3- [FB]2 [Fd] | [Fe]2 [Fe] [Fc]2 [Fc] | [Fd]2 [Fd] [GB]2 [GB] | [Fc]2 [Bd] [Ac]2 [G=e] | %24
w: we * can|sound a strain as|dear, This joy- ful|Christ- mas morn. *|
w: to * the|in- fant Sav- ior|bring Our hearts, our|lives our all! *|
 [Af]3- [Af]2 |] %25
w: |
w: |
V:2
 x | x6 | x6 | x6 | x6 | x6 | x6 | x6 | x6 | x6 | x5 F | x6 | x6 | x6 | x5 F | x6 | x6 | x6 | x6 | %19
w: ||||||||||tid-||||the|||||
w: ||||||||||an-||||of|||||
 x6 | x6 | x6 | x6 | x6 | x5 |] %25
w: ||||||
w: ||||||
V:3
 [B,,B,] | [B,,B,]2 [B,,F,] [B,,F,]2 [B,,B,] | [B,,B,]2 [B,,B,] [B,,B,]2 [E,B,] | %3
w: Ref:~Our|song we raise as|God we praise, Good|
 [F,B,]2 [F,A,] [F,D]2 [F,C] | ([B,,E]3 [B,,D]2) [B,,B,] | [B,,B,]2 [B,,F,] [B,,F,]2 [B,,B,] | %6
w: will and peace on|earth; * With|heart and voice we|
 [B,,B,]2 [B,,B,] [B,,B,]2 [E,B,] | [F,B,]2 [F,A,] [F,B,]2 F, | [B,,F,]3- [B,,F,]2 [B,,F,] | %9
w: all re- joice, And|sing the Sav- ior’s||
 [D,B,]2 [D,B,] [E,B,]2 [E,G,] | [C,G,]2 [C,C] [F,C]2 [D,B,] | [E,B,]2 [C,C] [D,B,]2 [F,A,] | %12
w: |||
 B,3- B,2 [B,,F,] | [D,B,]2 [D,B,] [E,B,]2 [E,G,] | [C,G,]2 [C,C] [F,C]2 [D,B,] | %15
w: |||
 [E,B,]2 [E,B,] [F,B,]2 F, | [B,,F,]3- [B,,F,]2 [B,,B,] | [F,C]2 [F,C] [F,A,]2 [F,A,] | %18
w: |||
 B,2 B, [G,D]2 [G,D] | [E,E]2 [E,E] [F,C]2 [F,C] | [B,,D]3- [B,,D]2 [B,,B,] | %21
w: |||
 [F,C]2 [F,C] [F,A,]2 [F,A,] | B,2 B, [G,D]2 [G,D] | CF[B,F] [CF]2 [C,C] | [F,C]3- [F,C]2 |] %25
w: ||||
V:4
 x | x6 | x6 | x6 | x6 | x6 | x6 | x5 F, | x6 | x6 | x6 | x6 | B,3- B,2 x | x6 | x6 | x5 F, | x6 | %17
w: |||||||birth.||||||||||
 x6 | B,2 B, x3 | x6 | x6 | x6 | B,2 B, x3 | A,2 x4 | x5 |] %25
w: ||||||||

